build/images/img/point.svg

<svg xmlns="http://www.w3.org/2000/svg" width="13" height="10"><path fill-rule="evenodd" d="M.15 5.503a.544.544 0 01-.15-.35c0-.1.05-.25.15-.35l.699-.7c.2-.2.5-.2.7 0l.05.051 2.748 2.947c.1.1.25.1.35 0L11.393.157h.05c.2-.2.5-.2.7 0l.7.699c.199.2.199.499 0 .699L4.847 9.849c-.1.1-.2.15-.35.15a.45.45 0 01-.349-.15L.25 5.652l-.1-.149z"/></svg>

<svg 
 xmlns="http://www.w3.org/2000/svg"
 xmlns:xlink="http://www.w3.org/1999/xlink"
 width="13px" height="10px">
<path fill-rule="evenodd"  fill="rgb(0, 0, 0)"
 d="M0.150,5.503 C0.050,5.402 -0.000,5.252 -0.000,5.153 C-0.000,5.053 0.050,4.903 0.150,4.803 L0.849,4.103 C1.049,3.903 1.349,3.903 1.549,4.103 L1.599,4.154 L4.347,7.101 C4.447,7.201 4.597,7.201 4.697,7.101 L11.393,0.157 L11.443,0.157 L11.443,0.157 L11.443,0.157 C11.643,-0.043 11.943,-0.043 12.143,0.157 L12.843,0.856 C13.042,1.056 13.042,1.355 12.843,1.555 L12.843,1.555 L12.843,1.555 L4.847,9.849 C4.747,9.949 4.647,9.999 4.497,9.999 C4.347,9.999 4.247,9.949 4.148,9.849 L0.250,5.652 L0.150,5.503 Z"/>
</svg>
